media/img/icons/m24-small/pizza.svg

<svg xmlns="http://www.w3.org/2000/svg" width="24" height="24" viewBox="0 0 24 24">
  <path fill="#231f20" d="M21.54 5.26c-.88-.44-2-1.04-3.55-1.54-1.52-.5-3.42-.88-5.82-.89h-.24c-2.4.02-4.3.4-5.82.89-1.54.5-2.67 1.1-3.55 1.54l9.49 15.8 9.49-15.8Zm-7.43 7.96v-2.2h-2.4V8.77h.35c1.52 0 3.03.21 4.34.65l-2.29 3.81v-.01ZM5.8 6.24c1.89-.75 4.07-1.13 6.25-1.13 2.18 0 4.36.38 6.25 1.13l-.71 1.17s-.05-.02-.08-.02c-.903-.336-1.838-.58-2.79-.73-.755-.114-1.517-.178-2.28-.19h-.78c-.77.02-1.53.07-2.28.19-.5.08-.99.18-1.47.31-.48.12-.95.27-1.4.44L5.8 6.24Zm6.25 10.4-3.26-5.43L7.71 9.4c.5-.17 1.04-.29 1.59-.39v2h2.4v2.41h2.28l-1.93 3.21v.01Z"/>
</svg>

<?xml version="1.0" encoding="utf-8"?>
<svg xmlns="http://www.w3.org/2000/svg" viewBox="0 0 24 24" width="24px" height="24px">
  <path d="M 21.54 5.26 C 20.66 4.82 19.54 4.22 17.99 3.72 C 16.47 3.22 14.57 2.84 12.17 2.83 L 11.93 2.83 C 9.53 2.85 7.63 3.23 6.11 3.72 C 4.57 4.22 3.44 4.82 2.56 5.26 L 12.05 21.06 L 21.54 5.26 Z M 14.11 13.22 L 14.11 11.02 L 11.71 11.02 L 11.71 8.77 L 12.06 8.77 C 13.58 8.77 15.09 8.98 16.4 9.42 L 14.11 13.23 L 14.11 13.22 Z M 5.8 6.24 C 7.69 5.49 9.87 5.11 12.05 5.11 C 14.23 5.11 16.41 5.49 18.3 6.24 L 17.59 7.41 C 17.59 7.41 17.54 7.39 17.51 7.39 C 16.607 7.054 15.672 6.81 14.72 6.66 C 13.965 6.546 13.203 6.482 12.44 6.47 L 11.66 6.47 C 10.89 6.49 10.13 6.54 9.38 6.66 C 8.88 6.74 8.39 6.84 7.91 6.97 C 7.43 7.09 6.96 7.24 6.51 7.41 L 5.8 6.24 Z M 12.05 16.64 L 8.79 11.21 L 7.71 9.4 C 8.21 9.23 8.75 9.11 9.3 9.01 L 9.3 11.01 L 11.7 11.01 L 11.7 13.42 L 13.98 13.42 L 12.05 16.63 L 12.05 16.64 Z" style="fill:#231f20"/>
</svg>
